glitch-avatars-svg/base_avatar/Avatar.fla/placeholder symbols 2/Avatar_sideLegUpperClose2.svg

<?xml version="1.0" encoding="UTF-8" standalone="no"?>
<!-- Generator: flash2svg, http://dissentgraphics.com/tools/flash2svg -->

<svg
   xmlns:dc="http://purl.org/dc/elements/1.1/"
   xmlns:cc="http://creativecommons.org/ns#"
   xmlns:rdf="http://www.w3.org/1999/02/22-rdf-syntax-ns#"
   xmlns:svg="http://www.w3.org/2000/svg"
   xmlns="http://www.w3.org/2000/svg"
   xmlns:sodipodi="http://sodipodi.sourceforge.net/DTD/sodipodi-0.dtd"
   xmlns:inkscape="http://www.inkscape.org/namespaces/inkscape"
   id="Avatar"
   image-rendering="auto"
   version="1.1"
   x="0px"
   y="0px"
   width="10.18844"
   height="17.59412"
   viewBox="0 0 10.18844 17.59412"
   inkscape:version="0.48.4 r9939"
   sodipodi:docname="Avatar_sideLegUpperClose2.svg">
  <metadata
     id="metadata3343">
    <rdf:RDF>
      <cc:Work
         rdf:about="">
        <dc:format>image/svg+xml</dc:format>
        <dc:type
           rdf:resource="http://purl.org/dc/dcmitype/StillImage" />
      </cc:Work>
    </rdf:RDF>
  </metadata>
  <sodipodi:namedview
     pagecolor="#ffffff"
     bordercolor="#666666"
     borderopacity="1"
     objecttolerance="10"
     gridtolerance="10"
     guidetolerance="10"
     inkscape:pageopacity="0"
     inkscape:pageshadow="2"
     inkscape:window-width="640"
     inkscape:window-height="480"
     id="namedview3341"
     showgrid="false"
     fit-margin-top="0"
     fit-margin-left="0"
     fit-margin-right="0"
     fit-margin-bottom="0"
     inkscape:zoom="1.8730159"
     inkscape:cx="39.2575"
     inkscape:cy="-48.226591"
     inkscape:window-x="0"
     inkscape:window-y="0"
     inkscape:window-maximized="0"
     inkscape:current-layer="Avatar" />
  <defs
     id="defs3320" />
  <g
     id="sideLegUpperClose3"
     overflow="visible"
     style="overflow:visible"
     transform="translate(5.2575,2.8207107)">
    <g
       id="sideLegUpperClose2_4">
      <g
         id="element2">
        <path
           id="path14"
           d="M 1.825,-1.375 Q 1.306,-1.823 1.25,-2 C 0.7,-2.45 0.1,-2.65 -0.65,-2.65 -0.8,-2.75 -1,-2.8 -1.2,-2.75 c -0.65,0.1 -1.25,0.3 -1.85,0.65 -0.35,0.2 -0.6,0.45 -0.85,0.75 -0.1,0.15 -0.2,0.3 -0.3,0.45 -0.1,0.35 -0.15,0.75 -0.2,1.1 0,0 0,0 0.05,0.05 -0.05,0.15 -0.15,0.35 -0.2,0.55 -0.15,1.95 -0.1,3.95 0.15,5.9 0.1,0.7 0.1,1.4 -0.05,2.1 0.15,1.2 0.55,2.4 1.1,3.55 0.1,0.15 0.2,0.35 0.3,0.5 L -3,12.8 c 1.8,1.8 3.8,2.05 6.05,0.7 0.25,-0.15 0.4,-0.35 0.5,-0.65 C 3.7,12.5 3.85,12.2 4,11.9 4.35,9.55 4.4,7.2 4.15,4.8 4.1,4.45 4.1,4.1 4.05,3.75 3.75,2.9 3.45,1.9 3.1,0.7 3.05,0.65 2.95,0.35 2.7,-0.15 2.45,-0.7 2.2,-1.1 1.85,-1.35"
           inkscape:connector-curvature="0"
           style="fill:#ffffcc" />
        <path
           id="path15"
           d="m 1.25,-2 q 0.056,0.177 0.575,0.625 L 1.85,-1.35 C 2.2,-1.1 2.45,-0.7 2.7,-0.15 2.95,0.35 3.05,0.65 3.1,0.7 3.45,1.9 3.75,2.9 4.05,3.75 4.1,4.1 4.1,4.45 4.15,4.8 4.4,7.2 4.35,9.55 4,11.9 3.85,12.2 3.7,12.5 3.55,12.85 3.45,13.15 3.3,13.35 3.05,13.5 0.8,14.85 -1.2,14.6 -3,12.8 c 0.1,0.15 0.2,0.3 0.3,0.45 C -2.85,13.1 -2.95,13 -3.05,12.85 -3.15,12.7 -3.25,12.5 -3.35,12.35 -3.9,11.2 -4.3,10 -4.45,8.8 -4.3,8.1 -4.3,7.4 -4.4,6.7 -4.65,4.75 -4.7,2.75 -4.55,0.8 -4.5,0.6 -4.4,0.4 -4.35,0.25 -4.4,0.2 -4.4,0.2 -4.4,0.2 -4.35,-0.15 -4.3,-0.55 -4.2,-0.9 -4.65,-0.15 -4.9,0.6 -4.9,1.35 -5.15,2 -5.2,2.7 -5.05,3.4 c 0.25,1.4 0.35,2.85 0.4,4.3 -0.15,1.15 -0.1,2.25 0.2,3.4 0.4,1.45 1.2,2.4 2.4,2.85 0.75,0.55 1.65,0.8 2.8,0.7 2.4,-0.15 3.65,-1.4 3.8,-3.85 l -0.025,0.05 0.025,0 C 4.65,10.4 4.75,9.9 4.8,9.4 5.05,6.9 4.75,4.5 3.9,2.25 3.95,2.45 3.95,2.65 4,2.85 3.85,2.4 3.75,1.9 3.6,1.45 3.4,0.7 3.1,0.05 2.7,-0.5 L 2.7,-0.525 2.525,-1 2.55,-1 C 2.5,-0.95 2.45,-0.9 2.35,-0.95 2.1,-1.3 1.8,-1.55 1.45,-1.8 1.4,-1.85 1.35,-1.9 1.3,-1.95 c -0.05,0 -0.05,0 -0.05,-0.05 z"
           inkscape:connector-curvature="0"
           style="fill:#663300" />
      </g>
      <animate
         attributeName="display"
         begin="0s"
         repeatCount="indefinite"
         dur="0.167s"
         keyTimes="0;0.798;1"
         values="none;inline;none"
         id="animate3327" />
    </g>
    <g
       id="sideLegUpperClose2_2">
      <g
         id="element1">
        <path
           id="path6"
           d="m 1.9,-1.075 q -0.609,-0.714 -0.75,-1.1 l 0,0.025 C 0.7,-2.5 0.2,-2.65 -0.4,-2.65 -0.45,-2.7 -0.45,-2.7 -0.45,-2.75 c -0.3,-0.05 -0.6,-0.05 -0.9,0 -0.65,0.05 -1.2,0.25 -1.75,0.6 -0.35,0.25 -0.7,0.6 -0.95,1 0,0.05 0,0.1 0.05,0.15 0.05,0 0.05,0.15 -0.1,0.4 -0.2,0.3 -0.25,0.6 -0.1,0.85 -0.2,0.45 -0.35,0.95 -0.45,1.4 0.05,1.5 0.1,3.05 0.25,4.6 0.05,0.6 0,1.2 -0.05,1.75 0.2,1.5 0.6,3 1.2,4.45 0.1,0.25 0.2,0.45 0.35,0.65 L -2.925,13.075 -2.85,13 C -1,14.65 0.95,14.8 3,13.35 3.45,13.05 3.75,12.65 3.9,12.15 3.95,12 4.05,11.8 4.15,11.6 c 0,-0.05 0,-0.05 0,-0.1 C 4.3,9.55 4.3,7.55 4.1,5.6 4.05,4.85 3.9,4.1 3.7,3.4 3.95,3.95 4.15,4.55 4.3,5.15 L 4.3,5.125 4.35,5.1 C 4.25,3.9 3.9,2.6 3.35,1.15 2.8,0.15 2.3,-0.6 1.9,-1.05"
           inkscape:connector-curvature="0"
           style="fill:#ffffcc" />
        <path
           id="path7"
           d="m 1.15,-2.175 q 0.141,0.386 0.75,1.1 l 0,0.025 c 0.4,0.45 0.9,1.2 1.45,2.2 0.55,1.45 0.9,2.75 1,3.95 0,-0.05 0,-0.05 0.05,-0.1 0,0.05 0,0.05 0,0.1 0,0.15 0,0.25 0,0.4 C 4.35,5.35 4.35,5.25 4.3,5.15 4.15,4.55 3.95,3.95 3.7,3.4 c 0.2,0.7 0.35,1.45 0.4,2.2 0.2,1.95 0.2,3.95 0.05,5.9 0,0.05 0,0.05 0,0.1 -0.1,0.2 -0.2,0.4 -0.25,0.55 -0.15,0.5 -0.45,0.9 -0.9,1.2 -2.05,1.45 -4,1.3 -5.85,-0.35 0.05,0.2 0.2,0.4 0.35,0.6 C -2.65,13.45 -2.8,13.25 -2.9,13.1 -3.05,12.9 -3.15,12.7 -3.25,12.45 -3.85,11 -4.25,9.5 -4.45,8 -4.4,7.45 -4.35,6.85 -4.4,6.25 -4.55,4.7 -4.6,3.15 -4.65,1.65 -4.55,1.2 -4.4,0.7 -4.2,0.25 -4.35,0 -4.3,-0.3 -4.1,-0.6 -3.95,-0.85 -3.95,-1 -4,-1 -4.05,-1.05 -4.05,-1.1 -4.05,-1.15 -4.2,-1 -4.3,-0.8 -4.4,-0.6 -4.7,0 -4.85,0.6 -4.85,1.25 c -0.25,0.65 -0.3,1.4 -0.2,2.15 0.15,1.25 0.3,2.55 0.35,3.8 0.05,0.5 0.05,1 0.05,1.55 0.1,1.25 0.4,2.45 0.85,3.65 0.5,1.2 1.25,1.85 2.3,1.9 0.25,0.1 0.5,0.15 0.75,0.2 0.75,0.15 1.4,0.15 2,0.1 -0.05,0 -0.05,0 -0.1,0 0.4,0 0.8,-0.1 1.25,-0.3 C 2.9,14.05 3.3,13.8 3.55,13.45 4.05,12.8 4.4,11.9 4.55,10.8 4.5,10.85 4.5,10.95 4.45,11 4.6,10.5 4.7,9.95 4.75,9.4 4.95,7.55 4.85,5.8 4.45,4.05 4.4,3.65 4.35,3.25 4.2,2.8 3.9,1.6 3.4,0.55 2.7,-0.3 2.65,-0.35 2.65,-0.45 2.6,-0.5 l 0,0.075 0,0.025 C 2.45,-0.6 2.25,-0.8 2.05,-1 2,-1.05 2,-1.15 1.95,-1.2 1.7,-1.6 1.45,-1.9 1.15,-2.15"
           inkscape:connector-curvature="0"
           style="fill:#663300" />
      </g>
      <animate
         attributeName="display"
         begin="0s"
         repeatCount="indefinite"
         dur="0.167s"
         keyTimes="0;0.399;0.798;1"
         values="none;inline;none;none"
         id="animate3333" />
    </g>
    <g
       id="sideLegUpperClose2_0">
      <g
         id="element">
        <path
           id="path"
           d="m 1.425,-1.7 q 0.199,0.143 0.55,0.475 L 2,-1.2 c 0.4,0.35 0.85,1.05 1.4,2 0.3,0.85 0.45,1.6 0.5,2.2 0,-0.05 0,-0.05 0,-0.1 0,0.05 0,0.05 0.05,0.1 C 4,3.4 4.05,3.8 4.15,4.2 4.7,6.8 4.55,9.4 3.8,11.95 3.85,11.85 3.95,11.75 4,11.65 3.95,11.75 3.95,11.85 3.9,12 3.85,12 3.85,12 3.85,12.05 3.7,12.4 3.55,12.65 3.4,12.9 2.45,14.05 1.25,14.55 -0.15,14.5 -0.5,14.3 -0.9,14.1 -1.25,13.95 -1.95,13.7 -2.55,13.3 -3.1,12.85 -3.45,12.3 -3.75,11.75 -3.9,11.15 -4.15,10.25 -4.35,9.35 -4.5,8.45 -4.45,7.75 -4.45,7 -4.5,6.2 -4.65,4.25 -4.7,2.4 -4.55,0.55 c 0,-0.05 0,-0.15 0.05,-0.2 0.1,-0.3 0.2,-0.6 0.35,-0.85 -0.05,0.05 -0.1,0.15 -0.15,0.2 0,0.05 -0.05,0.05 -0.1,0.05 0.05,-0.25 0.15,-0.5 0.3,-0.75 -0.25,0.3 -0.4,0.6 -0.55,0.95 C -5.1,1 -5.3,2.1 -5.25,3.15 -5.2,2.9 -5.15,2.65 -5.1,2.4 c 0,0.25 0,0.45 0.05,0.7 0.1,0.8 0.2,1.6 0.3,2.4 -0.15,0.95 -0.2,1.9 -0.15,2.85 0.05,1.55 0.45,2.85 1.2,3.95 -0.15,-0.15 -0.3,-0.35 -0.45,-0.5 0.1,0.45 0.3,0.8 0.6,1.15 0.75,0.8 1.7,1.35 2.75,1.6 0.65,0.25 1.35,0.3 2.2,0.1 2.15,-0.45 3.15,-1.8 3.1,-4 C 4.75,10.05 4.85,9.45 4.9,8.8 5.05,6.3 4.65,3.95 3.8,1.75 3.65,1.2 3.45,0.7 3.2,0.2 3.15,0.15 3.15,0.1 3.15,0.05 2.9,-0.3 2.65,-0.65 2.4,-0.95 L 2.4,-0.975 2.375,-0.95 2.35,-1 C 2.2,-1.15 2.05,-1.35 1.85,-1.5 l 0,-0.025 L 1.425,-1.7 z"
           inkscape:connector-curvature="0"
           style="fill:#663300" />
        <path
           id="path1"
           d="M 1.975,-1.225 Q 1.624,-1.557 1.425,-1.7 l -2.475,-0.975 0,0.025 c -0.05,0 -0.1,0 -0.15,0 -0.05,-0.05 -0.1,-0.05 -0.15,0 -0.1,0 -0.2,0 -0.3,0 0.15,-0.05 0.25,-0.1 0.4,-0.15 -0.2,-0.05 -0.4,0 -0.6,0.05 -0.45,0.1 -0.85,0.3 -1.2,0.55 l -0.1,0.075 0,0.025 c -0.05,0.05 -0.15,0.15 -0.25,0.2 -0.25,0.25 -0.5,0.5 -0.65,0.8 -0.05,0.05 -0.05,0.05 -0.05,0.1 -0.15,0.25 -0.25,0.5 -0.3,0.75 0.05,0 0.1,0 0.1,-0.05 0.05,-0.05 0.1,-0.15 0.15,-0.2 -0.15,0.25 -0.25,0.55 -0.35,0.85 -0.05,0.05 -0.05,0.15 -0.05,0.2 -0.15,1.85 -0.1,3.7 0.05,5.65 0.05,0.8 0.05,1.55 0,2.25 0.15,0.9 0.35,1.8 0.6,2.7 0.15,0.6 0.45,1.15 0.8,1.7 0.55,0.45 1.15,0.85 1.85,1.1 0.35,0.15 0.75,0.35 1.1,0.55 1.4,0.05 2.6,-0.45 3.55,-1.6 C 3.55,12.65 3.7,12.4 3.85,12.05 3.85,12 3.85,12 3.9,12 L 3.875,11.975 3.8,11.95 C 4.55,9.4 4.7,6.8 4.15,4.2 4.05,3.8 4,3.4 3.95,3 L 3.925,3 3.9,3 C 3.85,2.4 3.7,1.65 3.4,0.8 2.85,-0.15 2.4,-0.85 2,-1.2"
           inkscape:connector-curvature="0"
           style="fill:#ffffcc" />
      </g>
      <animate
         attributeName="display"
         begin="0s"
         repeatCount="indefinite"
         dur="0.167s"
         keyTimes="0;0.399;1"
         values="inline;none;none"
         id="animate3339" />
    </g>
  </g>
</svg>

<?xml version="1.0" encoding="utf-8"?>
<!-- Generator: flash2svg, http://dissentgraphics.com/tools/flash2svg -->
<svg xmlns:xlink="http://www.w3.org/1999/xlink" id="Avatar" image-rendering="auto" baseProfile="basic" version="1.1" x="0px" y="0px" width="68" height="126" xmlns="http://www.w3.org/2000/svg" viewBox="0 0 68 126">
  <defs/>
  <g id="sideLegUpperClose3" overflow="visible">
    <g id="sideLegUpperClose2_4">
      <g id="element2">
        <path id="path14" fill="#FFC" d="M1.825,-1.375 Q1.306,-1.823 1.25,-2 C0.7,-2.45 0.1,-2.65 -0.65,-2.65 -0.8,-2.75 -1,-2.8 -1.2,-2.75 -1.85,-2.65 -2.45,-2.45 -3.05,-2.1 -3.4,-1.9 -3.65,-1.65 -3.9,-1.35 -4,-1.2 -4.1,-1.05 -4.2,-0.9 -4.3,-0.55 -4.35,-0.15 -4.4,0.2 -4.4,0.2 -4.4,0.2 -4.35,0.25 -4.4,0.4 -4.5,0.6 -4.55,0.8 -4.7,2.75 -4.65,4.75 -4.4,6.7 -4.3,7.4 -4.3,8.1 -4.45,8.8 -4.3,10 -3.9,11.2 -3.35,12.35 -3.25,12.5 -3.15,12.7 -3.05,12.85 L-3,12.8 C-1.2,14.6 0.8,14.85 3.05,13.5 3.3,13.35 3.45,13.15 3.55,12.85 3.7,12.5 3.85,12.2 4,11.9 4.35,9.55 4.4,7.2 4.15,4.8 4.1,4.45 4.1,4.1 4.05,3.75 3.75,2.9 3.45,1.9 3.1,0.7 3.05,0.65 2.95,0.35 2.7,-0.15 2.45,-0.7 2.2,-1.1 1.85,-1.35"/>
        <path id="path15" fill="#630" d="M1.25,-2 Q1.306,-1.823 1.825,-1.375 L1.85,-1.35 C2.2,-1.1 2.45,-0.7 2.7,-0.15 2.95,0.35 3.05,0.65 3.1,0.7 3.45,1.9 3.75,2.9 4.05,3.75 4.1,4.1 4.1,4.45 4.15,4.8 4.4,7.2 4.35,9.55 4,11.9 3.85,12.2 3.7,12.5 3.55,12.85 3.45,13.15 3.3,13.35 3.05,13.5 0.8,14.85 -1.2,14.6 -3,12.8 -2.9,12.95 -2.8,13.1 -2.7,13.25 -2.85,13.1 -2.95,13 -3.05,12.85 -3.15,12.7 -3.25,12.5 -3.35,12.35 -3.9,11.2 -4.3,10 -4.45,8.8 -4.3,8.1 -4.3,7.4 -4.4,6.7 -4.65,4.75 -4.7,2.75 -4.55,0.8 -4.5,0.6 -4.4,0.4 -4.35,0.25 -4.4,0.2 -4.4,0.2 -4.4,0.2 -4.35,-0.15 -4.3,-0.55 -4.2,-0.9 -4.65,-0.15 -4.9,0.6 -4.9,1.35 -5.15,2 -5.2,2.7 -5.05,3.4 -4.8,4.8 -4.7,6.25 -4.65,7.7 -4.8,8.85 -4.75,9.95 -4.45,11.1 -4.05,12.55 -3.25,13.5 -2.05,13.95 -1.3,14.5 -0.4,14.75 0.75,14.65 3.15,14.5 4.4,13.25 4.55,10.8 L4.525,10.85 L4.55,10.85 C4.65,10.4 4.75,9.9 4.8,9.4 5.05,6.9 4.75,4.5 3.9,2.25 3.95,2.45 3.95,2.65 4,2.85 3.85,2.4 3.75,1.9 3.6,1.45 3.4,0.7 3.1,0.05 2.7,-0.5 L2.7,-0.525 L2.525,-1 L2.55,-1 C2.5,-0.95 2.45,-0.9 2.35,-0.95 2.1,-1.3 1.8,-1.55 1.45,-1.8 1.4,-1.85 1.35,-1.9 1.3,-1.95 1.25,-1.95 1.25,-1.95 1.25,-2z"/>
      </g>
      <animate attributeName="display" begin="0s" repeatCount="indefinite" dur="0.167s" keyTimes="0;0.798;1" values="none;inline;none"/>
    </g>
    <g id="sideLegUpperClose2_2">
      <g id="element1">
        <path id="path6" fill="#FFC" d="M1.9,-1.075 Q1.291,-1.789 1.15,-2.175 L1.15,-2.15 C0.7,-2.5 0.2,-2.65 -0.4,-2.65 -0.45,-2.7 -0.45,-2.7 -0.45,-2.75 -0.75,-2.8 -1.05,-2.8 -1.35,-2.75 -2,-2.7 -2.55,-2.5 -3.1,-2.15 -3.45,-1.9 -3.8,-1.55 -4.05,-1.15 -4.05,-1.1 -4.05,-1.05 -4,-1 -3.95,-1 -3.95,-0.85 -4.1,-0.6 -4.3,-0.3 -4.35,0 -4.2,0.25 -4.4,0.7 -4.55,1.2 -4.65,1.65 -4.6,3.15 -4.55,4.7 -4.4,6.25 -4.35,6.85 -4.4,7.45 -4.45,8 -4.25,9.5 -3.85,11 -3.25,12.45 -3.15,12.7 -3.05,12.9 -2.9,13.1 L-2.925,13.075 L-2.85,13 C-1,14.65 0.95,14.8 3,13.35 3.45,13.05 3.75,12.65 3.9,12.15 3.95,12 4.05,11.8 4.15,11.6 4.15,11.55 4.15,11.55 4.15,11.5 4.3,9.55 4.3,7.55 4.1,5.6 4.05,4.85 3.9,4.1 3.7,3.4 3.95,3.95 4.15,4.55 4.3,5.15 L4.3,5.125 L4.35,5.1 C4.25,3.9 3.9,2.6 3.35,1.15 2.8,0.15 2.3,-0.6 1.9,-1.05"/>
        <path id="path7" fill="#630" d="M1.15,-2.175 Q1.291,-1.789 1.9,-1.075 L1.9,-1.05 C2.3,-0.6 2.8,0.15 3.35,1.15 3.9,2.6 4.25,3.9 4.35,5.1 4.35,5.05 4.35,5.05 4.4,5 4.4,5.05 4.4,5.05 4.4,5.1 4.4,5.25 4.4,5.35 4.4,5.5 4.35,5.35 4.35,5.25 4.3,5.15 4.15,4.55 3.95,3.95 3.7,3.4 3.9,4.1 4.05,4.85 4.1,5.6 4.3,7.55 4.3,9.55 4.15,11.5 4.15,11.55 4.15,11.55 4.15,11.6 4.05,11.8 3.95,12 3.9,12.15 3.75,12.65 3.45,13.05 3,13.35 0.95,14.8 -1,14.65 -2.85,13 -2.8,13.2 -2.65,13.4 -2.5,13.6 -2.65,13.45 -2.8,13.25 -2.9,13.1 -3.05,12.9 -3.15,12.7 -3.25,12.45 -3.85,11 -4.25,9.5 -4.45,8 -4.4,7.45 -4.35,6.85 -4.4,6.25 -4.55,4.7 -4.6,3.15 -4.65,1.65 -4.55,1.2 -4.4,0.7 -4.2,0.25 -4.35,0 -4.3,-0.3 -4.1,-0.6 -3.95,-0.85 -3.95,-1 -4,-1 -4.05,-1.05 -4.05,-1.1 -4.05,-1.15 -4.2,-1 -4.3,-0.8 -4.4,-0.6 -4.7,0 -4.85,0.6 -4.85,1.25 -5.1,1.9 -5.15,2.65 -5.05,3.4 -4.9,4.65 -4.75,5.95 -4.7,7.2 -4.65,7.7 -4.65,8.2 -4.65,8.75 -4.55,10 -4.25,11.2 -3.8,12.4 -3.3,13.6 -2.55,14.25 -1.5,14.3 -1.25,14.4 -1,14.45 -0.75,14.5 0,14.65 0.65,14.65 1.25,14.6 1.2,14.6 1.2,14.6 1.15,14.6 1.55,14.6 1.95,14.5 2.4,14.3 2.9,14.05 3.3,13.8 3.55,13.45 4.05,12.8 4.4,11.9 4.55,10.8 4.5,10.85 4.5,10.95 4.45,11 4.6,10.5 4.7,9.95 4.75,9.4 4.95,7.55 4.85,5.8 4.45,4.05 4.4,3.65 4.35,3.25 4.2,2.8 3.9,1.6 3.4,0.55 2.7,-0.3 2.65,-0.35 2.65,-0.45 2.6,-0.5 L2.6,-0.425 L2.6,-0.4 C2.45,-0.6 2.25,-0.8 2.05,-1 2,-1.05 2,-1.15 1.95,-1.2 1.7,-1.6 1.45,-1.9 1.15,-2.15"/>
      </g>
      <animate attributeName="display" begin="0s" repeatCount="indefinite" dur="0.167s" keyTimes="0;0.399;0.798;1" values="none;inline;none;none"/>
    </g>
    <g id="sideLegUpperClose2_0">
      <g id="element">
        <path id="path" fill="#630" d="M1.425,-1.7 Q1.624,-1.557 1.975,-1.225 L2,-1.2 C2.4,-0.85 2.85,-0.15 3.4,0.8 3.7,1.65 3.85,2.4 3.9,3 3.9,2.95 3.9,2.95 3.9,2.9 3.9,2.95 3.9,2.95 3.95,3 4,3.4 4.05,3.8 4.15,4.2 4.7,6.8 4.55,9.4 3.8,11.95 3.85,11.85 3.95,11.75 4,11.65 3.95,11.75 3.95,11.85 3.9,12 3.85,12 3.85,12 3.85,12.05 3.7,12.4 3.55,12.65 3.4,12.9 2.45,14.05 1.25,14.55 -0.15,14.5 -0.5,14.3 -0.9,14.1 -1.25,13.95 -1.95,13.7 -2.55,13.3 -3.1,12.85 -3.45,12.3 -3.75,11.75 -3.9,11.15 -4.15,10.25 -4.35,9.35 -4.5,8.45 -4.45,7.75 -4.45,7 -4.5,6.2 -4.65,4.25 -4.7,2.4 -4.55,0.55 -4.55,0.5 -4.55,0.4 -4.5,0.35 -4.4,0.05 -4.3,-0.25 -4.15,-0.5 -4.2,-0.45 -4.25,-0.35 -4.3,-0.3 -4.3,-0.25 -4.35,-0.25 -4.4,-0.25 -4.35,-0.5 -4.25,-0.75 -4.1,-1 -4.35,-0.7 -4.5,-0.4 -4.65,-0.05 -5.1,1 -5.3,2.1 -5.25,3.15 -5.2,2.9 -5.15,2.65 -5.1,2.4 -5.1,2.65 -5.1,2.85 -5.05,3.1 -4.95,3.9 -4.85,4.7 -4.75,5.5 -4.9,6.45 -4.95,7.4 -4.9,8.35 -4.85,9.9 -4.45,11.2 -3.7,12.3 -3.85,12.15 -4,11.95 -4.15,11.8 -4.05,12.25 -3.85,12.6 -3.55,12.95 -2.8,13.75 -1.85,14.3 -0.8,14.55 -0.15,14.8 0.55,14.85 1.4,14.65 3.55,14.2 4.55,12.85 4.5,10.65 4.75,10.05 4.85,9.45 4.9,8.8 5.05,6.3 4.65,3.95 3.8,1.75 3.65,1.2 3.45,0.7 3.2,0.2 3.15,0.15 3.15,0.1 3.15,0.05 2.9,-0.3 2.65,-0.65 2.4,-0.95 L2.4,-0.975 L2.375,-0.95 2.35,-1 C2.2,-1.15 2.05,-1.35 1.85,-1.5 L1.85,-1.525 L1.425,-1.7z"/>
        <path id="path1" fill="#FFC" d="M1.975,-1.225 Q1.624,-1.557 1.425,-1.7 L-1.05,-2.675 L-1.05,-2.65 C-1.1,-2.65 -1.15,-2.65 -1.2,-2.65 -1.25,-2.7 -1.3,-2.7 -1.35,-2.65 -1.45,-2.65 -1.55,-2.65 -1.65,-2.65 -1.5,-2.7 -1.4,-2.75 -1.25,-2.8 -1.45,-2.85 -1.65,-2.8 -1.85,-2.75 -2.3,-2.65 -2.7,-2.45 -3.05,-2.2 L-3.15,-2.125 L-3.15,-2.1 C-3.2,-2.05 -3.3,-1.95 -3.4,-1.9 -3.65,-1.65 -3.9,-1.4 -4.05,-1.1 -4.1,-1.05 -4.1,-1.05 -4.1,-1 -4.25,-0.75 -4.35,-0.5 -4.4,-0.25 -4.35,-0.25 -4.3,-0.25 -4.3,-0.3 -4.25,-0.35 -4.2,-0.45 -4.15,-0.5 -4.3,-0.25 -4.4,0.05 -4.5,0.35 -4.55,0.4 -4.55,0.5 -4.55,0.55 -4.7,2.4 -4.65,4.25 -4.5,6.2 -4.45,7 -4.45,7.75 -4.5,8.45 -4.35,9.35 -4.15,10.25 -3.9,11.15 -3.75,11.75 -3.45,12.3 -3.1,12.85 -2.55,13.3 -1.95,13.7 -1.25,13.95 -0.9,14.1 -0.5,14.3 -0.15,14.5 1.25,14.55 2.45,14.05 3.4,12.9 3.55,12.65 3.7,12.4 3.85,12.05 3.85,12 3.85,12 3.9,12 L3.875,11.975 L3.8,11.95 C4.55,9.4 4.7,6.8 4.15,4.2 4.05,3.8 4,3.4 3.95,3 L3.925,3 L3.9,3 C3.85,2.4 3.7,1.65 3.4,0.8 2.85,-0.15 2.4,-0.85 2,-1.2"/>
      </g>
      <animate attributeName="display" begin="0s" repeatCount="indefinite" dur="0.167s" keyTimes="0;0.399;1" values="inline;none;none"/>
    </g>
  </g>
</svg>
